X: 34476
T: Ridée Pour Jean-Michel Veillon
R: waltz
M: 3/4
K: Emajor
eg fe cB|eg ag fg|eg fe cB|B~c3Bc:|
b~e3bc'|bg ag fe|b~e3ce|fa ag fe|
b~e3bc'|bg ag fe|cf fe fg|ga ag fg|

